material/.icons/material/ghost.svg

<svg xmlns="http://www.w3.org/2000/svg" viewBox="0 0 24 24"><path d="M12 2a9 9 0 00-9 9v11l3-3 3 3 3-3 3 3 3-3 3 3V11a9 9 0 00-9-9M9 8a2 2 0 012 2 2 2 0 01-2 2 2 2 0 01-2-2 2 2 0 012-2m6 0a2 2 0 012 2 2 2 0 01-2 2 2 2 0 01-2-2 2 2 0 012-2z"/></svg>

<?xml version="1.0" encoding="UTF-8"?><!DOCTYPE svg PUBLIC "-//W3C//DTD SVG 1.1//EN" "http://www.w3.org/Graphics/SVG/1.1/DTD/svg11.dtd"><svg xmlns="http://www.w3.org/2000/svg" xmlns:xlink="http://www.w3.org/1999/xlink" version="1.1" id="mdi-ghost" width="24" height="24" viewBox="0 0 24 24"><path d="M12,2A9,9 0 0,0 3,11V22L6,19L9,22L12,19L15,22L18,19L21,22V11A9,9 0 0,0 12,2M9,8A2,2 0 0,1 11,10A2,2 0 0,1 9,12A2,2 0 0,1 7,10A2,2 0 0,1 9,8M15,8A2,2 0 0,1 17,10A2,2 0 0,1 15,12A2,2 0 0,1 13,10A2,2 0 0,1 15,8Z" /></svg>
